X:101
T:Miss Spence's reel
S:from one of Tom Andersons books
R:Reel
O:Shetland
N:Made in 1759
M:4/4
C:J. Anderson
K:D
A | d2AG F2DF | E=C3 c3A | \
B2AG FE ([A,2D2] | [A,D]) d2c d3 :|\
|: e |\
fafd fafd | egec egec | fafd fafd | egec d3 :|
